X: 7765
T:Schottis fr Norbotten
R:Schottische
O:Sweden
N:the upbows in bar 9 should be pizzicato
M:4/4
A:Norrbotten
K:D
ABAG F2A2 | dcde f2fa |1 gfgf e2ef | abaf d4:|2\
gfgf e2eg | f2d2 d4 ::\
abag fgfe | d2cd e4 | ue2uA2ue2uA2 | abaf d4 |\
fgfe d2ef | g2b2 e2ed | c2cd eAfe | dcde f4|\
fgfe d2ef | g2b2 e2ed | c2cd eAfe | d2dc d4 :|
